src/assets/duotone/Polygon.svg

<svg width="24" height="24" viewBox="0 0 24 24"  xmlns="http://www.w3.org/2000/svg">
<path d="M21.3802 11.4502L16.8802 8.85023C16.6502 8.72023 16.3602 8.72023 16.1302 8.85023L11.6302 11.4502C11.6302 11.4502 11.6302 11.4602 11.6202 11.4602L7.50023 13.8402L3.75023 11.6702V7.33023L7.50023 5.16023L11.2502 7.33023V8.47023C11.2502 8.88023 11.5902 9.22023 12.0002 9.22023C12.4102 9.22023 12.7502 8.88023 12.7502 8.47023V6.90023C12.7502 6.63023 12.6102 6.38023 12.3702 6.25023L7.87022 3.65023C7.64022 3.52023 7.35022 3.52023 7.12022 3.65023L2.62022 6.25023C2.39022 6.38023 2.24023 6.63023 2.24023 6.90023V12.1002C2.24023 12.3702 2.38022 12.6202 2.62022 12.7502L7.12022 15.3502C7.24022 15.4202 7.37023 15.4502 7.50023 15.4502C7.63023 15.4502 7.76023 15.4202 7.88023 15.3502L12.3802 12.7502C12.3802 12.7502 12.3802 12.7402 12.3902 12.7402L16.5102 10.3602L20.2602 12.5302V16.8602L16.5102 19.0302L12.7602 16.8602V15.6402C12.7602 15.2302 12.4202 14.8902 12.0102 14.8902C11.6002 14.8902 11.2602 15.2302 11.2602 15.6402V17.2902C11.2602 17.5602 11.4002 17.8102 11.6402 17.9402L16.1402 20.5402C16.2602 20.6102 16.3902 20.6402 16.5202 20.6402C16.6502 20.6402 16.7802 20.6102 16.9002 20.5402L21.4002 17.9402C21.6302 17.8102 21.7802 17.5602 21.7802 17.2902V12.0902C21.7502 11.8302 21.6102 11.5802 21.3802 11.4502Z" />
<path opacity="0.4" d="M4.5 8.35031V10.6603C4.5 11.0203 4.69 11.3503 5 11.5303L7 12.6803C7.31 12.8603 7.69 12.8603 8 12.6803L10 11.5303C10.31 11.3503 10.5 11.0203 10.5 10.6603V8.35031C10.5 7.99031 10.31 7.66031 10 7.48031L8 6.33031C7.69 6.15031 7.31 6.15031 7 6.33031L5 7.48031C4.69 7.66031 4.5 7.99031 4.5 8.35031Z" />
<path opacity="0.4" d="M13.5 13.5495V15.8595C13.5 16.2195 13.69 16.5495 14 16.7295L16 17.8795C16.31 18.0595 16.69 18.0595 17 17.8795L19 16.7295C19.31 16.5495 19.5 16.2195 19.5 15.8595V13.5495C19.5 13.1895 19.31 12.8595 19 12.6795L17 11.5295C16.69 11.3495 16.31 11.3495 16 11.5295L14 12.6795C13.69 12.8595 13.5 13.1895 13.5 13.5495Z" />
</svg>

<?xml version="1.0" encoding="UTF-8"?>
<svg width="24" height="24" viewBox="0 0 24 24" xmlns="http://www.w3.org/2000/svg">
 <path d="m21.38 11.45-4.5-2.6c-0.23-0.13-0.52-0.13-0.75 0l-4.5 2.6s0 0.01-0.01 0.01l-4.12 2.38-3.75-2.17v-4.34l3.75-2.17 3.75 2.17v1.14c0 0.41 0.34 0.75 0.75 0.75s0.75-0.34 0.75-0.75v-1.57c0-0.27-0.14-0.52-0.38-0.65l-4.5-2.6c-0.23-0.13-0.52-0.13-0.75 0l-4.5 2.6c-0.23 0.13-0.37999 0.38-0.37999 0.65v5.2c0 0.27 0.13999 0.52 0.37999 0.65l4.5 2.6c0.12 0.07 0.25001 0.1 0.38001 0.1s0.26-0.03 0.38-0.1l4.5-2.6s0-0.01 0.01-0.01l4.12-2.38 3.75 2.17v4.33l-3.75 2.17-3.75-2.17v-1.22c0-0.41-0.34-0.75-0.75-0.75s-0.75 0.34-0.75 0.75v1.65c0 0.27 0.14 0.52 0.38 0.65l4.5 2.6c0.12 0.07 0.25 0.1 0.38 0.1s0.26-0.03 0.38-0.1l4.5-2.6c0.23-0.13 0.38-0.38 0.38-0.65v-5.2c-0.03-0.26-0.17-0.51-0.4-0.64z"/>
 <path d="m4.5 8.3503v2.31c0 0.36 0.19 0.69 0.5 0.87l2 1.15c0.31 0.18 0.69 0.18 1 0l2-1.15c0.31-0.18 0.5-0.51 0.5-0.87v-2.31c0-0.36-0.19-0.69-0.5-0.87l-2-1.15c-0.31-0.18-0.69-0.18-1 0l-2 1.15c-0.31 0.18-0.5 0.51-0.5 0.87z" opacity=".4"/>
 <path d="m13.5 13.55v2.31c0 0.36 0.19 0.69 0.5 0.87l2 1.15c0.31 0.18 0.69 0.18 1 0l2-1.15c0.31-0.18 0.5-0.51 0.5-0.87v-2.31c0-0.36-0.19-0.69-0.5-0.87l-2-1.15c-0.31-0.18-0.69-0.18-1 0l-2 1.15c-0.31 0.18-0.5 0.51-0.5 0.87z" opacity=".4"/>
</svg>
